X: 3709
T:Road to Skye
R:jig
C:Trad.-Buddy MacMaster, Natalie MacMaster
O:Scotland
M:6/8
L:1/8
K:A
E|AGF ECE|Ace (f2e)|acc {d}cBc|dFF (F2E)|!
AGF ECE|Ace (f2e)|aec BAB|{e}cAA A2:|!
|:B|Ace Ace|Ace dcB|Ace fga|{fa}gee efg|!
a3 g3|f3 e2c|dcd Bed|cAA A2:||!
